img/arrow_left_small.svg

<svg xmlns="http://www.w3.org/2000/svg" width="20" height="33" viewBox="0 0 20 33">
  <path fill="#87C849" d="M1.58193012,32.8133339 C1.02706593,32.8136828 0.529982664,32.4703662 0.33384141,31.9513257 C0.137700156,31.4322853 0.283504352,30.8460266 0.69993012,30.4793333 L16.6319301,16.449 L0.69993012,2.41833333 C0.147185151,1.93158637 0.0936831883,1.08891166 0.58043014,0.536166687 C1.06717709,-0.0165782936 1.9098518,-0.070080274 2.46259679,0.416666667 L19.5309301,15.4483333 C19.8184704,15.7013403 19.9832558,16.0658295 19.9832558,16.4488333 C19.9832558,16.8318371 19.8184704,17.1963264 19.5309301,17.4493333 L2.46259679,32.4803333 C2.20926345,32.7036667 1.89459679,32.8133339 1.58193012,32.8133339 L1.58193012,32.8133339 Z" transform="matrix(-1 0 0 1 20.23 0)"/>
</svg>

<svg height="33" viewBox="0 0 20 33" width="20" xmlns="http://www.w3.org/2000/svg"><path d="m1.58193012 32.8133339c-.55486419.0003489-1.05194746-.3429677-1.24808871-.8620082-.19614125-.5190404-.05033706-1.1052991.36608871-1.4719924l15.93199998-14.0303333-15.93199998-14.03066667c-.55274497-.48674696-.60624693-1.32942167-.11949998-1.88216664.48674695-.55274498 1.32942166-.60624696 1.88216665-.11950002l17.06833331 15.03166663c.2875403.253007.4523257.6174962.4523257 1.0005s-.1647854.7474931-.4523257 1.0005l-17.06833331 15.031c-.25333334.2233334-.568.3330006-.88066667.3330006z" fill="#87c849" transform="matrix(-1 0 0 1 20.23 0)"/></svg>
